X:4
T:Cock O' the North 
B:Terry "Cuz" Teahan "Sliabh Luachra on Parade" 1980
Z:Patrick Cavanagh
M:6/8
L:1/8
R:Jig
K:G
G2A | B2B A2G | B2d efg | B2B d2B | A3 AGA | 
BcB A2G | B2d efg | BdB A2B | G3 :| 
| Gef | g2d e2d | g2d e2d | B2B dBG | A3 Aef | 
g2d e2d | g2d e2d | B2G A2B | G3 :|| 

